!!!OTL: HOPP HOPP HOPP ICH BIN EIN REITERSMANN
!!!ARE: Europa, Mitteleuropa, Deutschland, Schlesien
!!!SCT: F0258
!!!YEM: Copyright 1995, estate of Helmut Schaffrath.
**kern
*ICvox
*Ivox
*M4/4
*k[f#c#]
*D:
{8A
8A
8A
=1
4.d
8F#
4.A
8G
=2
4G
4F#
4r}
{8F#
8F#
=3
4A
4A
4G
4G
=4
4E
4E}
{4G
4G
=5
4B
4B
4A
4A
=6
4F#
4F#}
{4A
4A
=7
4d
4d
4B
4B
=8
2e}
{4c#
4A
=9
4A
4A
4B
4c#
=10
4d
4.r}
==
!!!AGN: Jugend - Lied, Kinder, Spiel, Kniereiter - Lied
!!!ONB: ESAC (Essen Associative Code) Database: FINK
!!!AMT: simple quadruple
!!!AIN: vox
!!!EED: Helmut Schaffrath
!!!EEV: 1.0
*-
